assets/luts/ACES CCT 2383 D65.cube
TITLE "Generated by Resolve"
LUT_3D_SIZE 65
0.145449 0.154788 0.169955
0.145449 0.154788 0.169955
0.145449 0.154788 0.169955
0.147265 0.155505 0.170367
0.153552 0.157977 0.171862
0.155993 0.160266 0.173342
0.160403 0.162737 0.174792
0.166812 0.165454 0.176196
0.173877 0.168215 0.177493
0.18291 0.17142 0.178744
0.190372 0.174319 0.179919
0.196658 0.177386 0.181064
0.202548 0.180774 0.1823
0.208347 0.184314 0.183581
0.214252 0.188281 0.185016
0.220432 0.192447 0.186633
0.2309 0.196689 0.18822
0.242206 0.20116 0.189212
0.257252 0.206363 0.189746
0.271946 0.212009 0.190356
0.285954 0.217502 0.190936
0.300389 0.223468 0.19176
0.314992 0.228763 0.193652
0.330312 0.233371 0.195529
0.346777 0.23563 0.200626
0.363241 0.23621 0.211276
0.379004 0.231525 0.222812
0.393515 0.219959 0.233936
0.407797 0.224033 0.248737
0.421241 0.233097 0.262928
0.434363 0.24271 0.278798
0.447272 0.254826 0.295369
0.458396 0.263172 0.313848
0.468391 0.270451 0.331579
0.478813 0.28719 0.350088
0.486778 0.297169 0.366873
0.495872 0.313573 0.384726
0.504723 0.330312 0.40174
0.513542 0.346853 0.418677
0.522438 0.363958 0.435233
0.531426 0.38114 0.451621
0.5402 0.397436 0.467384
0.549035 0.412863 0.482628
0.557778 0.427527 0.496788
0.566613 0.441672 0.510628
0.575265 0.455421 0.523873
0.583795 0.468635 0.536721
0.592142 0.481544 0.548836
0.600244 0.493751 0.560388
0.608072 0.505196 0.570779
0.615564 0.515801 0.580606
0.622736 0.525551 0.58938
0.629145 0.534051 0.597055
0.634379 0.540993 0.6038
0.639033 0.547097 0.609903
0.643198 0.552483 0.614969
0.64683 0.557092 0.619425
0.649653 0.560678 0.623178
0.65214 0.56379 0.626474
0.654322 0.566491 0.629358
0.656199 0.568811 0.631861
0.657816 0.570794 0.633997
0.659205 0.572473 0.635782
0.660365 0.573877 0.637201
0.661357 0.575082 0.638392
0.145449 0.154788 0.169955
0.145449 0.154788 0.169955
0.145449 0.154788 0.169955
0.145449 0.154788 0.169955
0.150942 0.157107 0.17055
0.155093 0.159487 0.171405
0.157275 0.161593 0.172412
0.164019 0.164508 0.173571
0.169879 0.167086 0.174655
0.178973 0.170321 0.175692
0.187228 0.173388 0.176761
0.194614 0.176471 0.17789
0.200839 0.17995 0.179004
0.206912 0.183597 0.180346
0.213062 0.18764 0.181842
0.219333 0.191959 0.18352
0.229587 0.196353 0.185321
0.240574 0.200717 0.187106
0.256001 0.205997 0.188525
0.270939 0.211704 0.189242
0.285191 0.21738 0.189654
0.299718 0.223331 0.189075
0.314397 0.228748 0.19028
0.329824 0.233387 0.191409
0.346273 0.235752 0.191684
0.362905 0.236835 0.204257
0.378714 0.232181 0.217517
0.393271 0.220417 0.22916
0.40763 0.224155 0.24564
0.421134 0.233234 0.260456
0.434195 0.242557 0.276188
0.447196 0.254948 0.293233
0.458366 0.263432 0.311696
0.468376 0.270726 0.329854
0.478782 0.287465 0.348714
0.486824 0.297688 0.36585
0.495903 0.313893 0.383917
0.504753 0.330541 0.401099
0.513588 0.347066 0.418143
0.522484 0.364141 0.434791
0.531472 0.381292 0.45124
0.54023 0.397559 0.467109
0.549081 0.41297 0.482383
0.557809 0.427619 0.496605
0.566644 0.441764 0.51046
0.575296 0.455497 0.523735
0.583825 0.468696 0.536599
0.592157 0.481605 0.54873
0.600275 0.493812 0.560296
0.608103 0.505257 0.570687
0.615595 0.515846 0.58053
0.622766 0.525597 0.589319
0.629175 0.534081 0.596994
0.634409 0.541039 0.603738
0.639063 0.547127 0.609842
0.643229 0.552514 0.614923
0.646845 0.557122 0.619379
0.649668 0.560708 0.623133
0.652171 0.563821 0.626429
0.654337 0.566522 0.629313
0.656229 0.568841 0.6318
0.657847 0.570809 0.633951
0.659236 0.572503 0.635752
0.660395 0.573907 0.637156
0.661387 0.575113 0.638361
0.145449 0.154788 0.169955
0.145449 0.154788 0.169955
0.145449 0.154788 0.169955
0.145449 0.154788 0.169955
0.148257 0.156237 0.169863
0.154101 0.15877 0.170047
0.156649 0.161212 0.170794
0.160281 0.163577 0.171633
0.166735 0.166369 0.172671
0.172595 0.168811 0.173495
0.181888 0.172076 0.174472
0.190341 0.175341 0.175586
0.19791 0.179004 0.176593
0.204761 0.182895 0.177676
0.211322 0.18703 0.17879
0.21796 0.19147 0.18027
0.227955 0.196017 0.181842
0.238987 0.20032 0.18349
0.254658 0.205661 0.18529
0.26981 0.211292 0.187076
0.284367 0.217121 0.188128
0.299016 0.223163 0.187747
0.313756 0.228687 0.185931
0.32929 0.233356 0.186709
0.34583 0.235843 0.186435
0.362478 0.237171 0.195422
0.378546 0.234257 0.208835
0.393027 0.220859 0.22414
0.407446 0.224155 0.241779
0.421012 0.233371 0.257862
0.434043 0.242405 0.273457
0.447105 0.25507 0.29102
0.45832 0.263676 0.309483
0.468376 0.270985 0.328069
0.478737 0.287724 0.347311
0.486854 0.298207 0.364813
0.495933 0.314214 0.383093
0.504799 0.330785 0.400443
0.513619 0.347295 0.417609
0.522515 0.364309 0.434333
0.531502 0.381445 0.450874
0.540276 0.397681 0.466819
0.549111 0.413077 0.482155
0.557855 0.42771 0.496406
0.566674 0.44184 0.510307
0.575326 0.455573 0.523583
0.583856 0.468757 0.536477
0.592187 0.481682 0.548608
0.60032 0.493858 0.560204
0.608118 0.505302 0.570611
0.615625 0.515892 0.580438
0.622797 0.525658 0.589258
0.629191 0.534127 0.596933
0.634424 0.541085 0.603693
0.639078 0.547173 0.609781
0.643259 0.55256 0.614878
0.646876 0.557153 0.619333
0.649699 0.560739 0.623087
0.652186 0.563851 0.626383
0.654368 0.566552 0.629267
0.656245 0.568872 0.631754
0.657862 0.57084 0.633906
0.659251 0.572534 0.635706
0.66041 0.573938 0.637125
0.661402 0.575143 0.638315
0.145449 0.154788 0.169955
0.145449 0.154788 0.169955
0.145449 0.154788 0.169955
0.145449 0.154788 0.169955
0.146029 0.155169 0.169741
0.151125 0.158068 0.169223
0.15584 0.160616 0.169253
0.158022 0.162783 0.169741
0.163272 0.165484 0.170565
0.168734 0.16788 0.171267
0.175891 0.170596 0.172061
0.185306 0.17406 0.173129
0.194339 0.177813 0.174365
0.202029 0.181979 0.175372
0.20911 0.186252 0.17644
0.216175 0.19089 0.177829
0.225254 0.195621 0.17908
0.236973 0.200168 0.180255
0.252613 0.205463 0.181567
0.268482 0.210956 0.182818
0.283467 0.216861 0.185199
0.298238 0.222858 0.185809
0.3131 0.22858 0.184283
0.328756 0.233295 0.181277
0.345403 0.23595 0.181399
0.361837 0.238285 0.182132
0.378332 0.236347 0.198672
0.392737 0.221302 0.218311
0.407233 0.224079 0.237201
0.42089 0.233478 0.255055
0.433875 0.242252 0.270634
0.447013 0.255192 0.288701
0.458259 0.263813 0.307149
0.468376 0.27126 0.326162
0.478691 0.287999 0.345876
0.4869 0.298711 0.36376
0.495964 0.314534 0.382269
0.504829 0.331014 0.399786
0.513649 0.347509 0.41706
0.52256 0.364477 0.43389
0.531548 0.381598 0.450492
0.540307 0.397787 0.466514
0.549142 0.413184 0.48191
0.557885 0.427802 0.496223
0.56672 0.441917 0.51014
0.575357 0.455634 0.52343
0.583886 0.468818 0.536355
0.592218 0.481743 0.548501
0.600351 0.493919 0.560113
0.608148 0.505364 0.57052
0.615656 0.515938 0.580362
0.622827 0.525704 0.589197
0.629221 0.534173 0.596872
0.634455 0.541115 0.603632
0.639109 0.547204 0.609735
0.64329 0.552605 0.614832
0.646891 0.557183 0.619287
0.649714 0.560769 0.623041
0.652216 0.563882 0.626337
0.654383 0.566583 0.629221
0.656275 0.568902 0.631708
0.657893 0.570871 0.63386
0.659281 0.572564 0.635676
0.660441 0.573968 0.637079
0.661433 0.575158 0.638285
0.145449 0.154788 0.169955
0.145449 0.154788 0.169955
0.145449 0.154788 0.169955
0.145449 0.154788 0.169955
0.145449 0.154788 0.169955
0.148592 0.157168 0.168765
0.154131 0.159731 0.167926
0.157092 0.162142 0.167926
0.158923 0.16408 0.168231
0.165393 0.167041 0.169116
0.170504 0.169345 0.169818
0.179706 0.172641 0.170489
0.189944 0.176562 0.171588
0.198901 0.180865 0.172671
0.206653 0.185351 0.17377
0.214176 0.190143 0.175158
0.222324 0.195087 0.176638
0.234836 0.200015 0.177768
0.249897 0.205264 0.1785
0.266453 0.210895 0.1794
0.28217 0.216922 0.180362
0.297383 0.22266 0.18201
0.312413 0.228412 0.182345
0.328222 0.233127 0.178561
0.344945 0.236133 0.174075
0.360906 0.239384 0.176333
0.377157 0.239048 0.1897
0.392447 0.221912 0.211566
0.407019 0.223972 0.232334
0.420752 0.233555 0.252064
0.433707 0.2421 0.268208
0.446906 0.255299 0.286259
0.458183 0.263951 0.304753
0.46836 0.271534 0.324285
0.478645 0.288258 0.344411
0.486931 0.299229 0.362692
0.495995 0.314855 0.381415
0.50486 0.331258 0.399115
0.513695 0.347723 0.41651
0.522591 0.36466 0.433433
0.531579 0.381735 0.450111
0.540352 0.39791 0.466209
0.549187 0.413291 0.481651
0.557916 0.427878 0.496025
0.566751 0.441993 0.509972
0.575387 0.455711 0.523293
0.583917 0.468879 0.536217
0.592248 0.481804 0.548379
0.600381 0.49398 0.560021
0.608179 0.505409 0.570428
0.615686 0.515999 0.580285
0.622858 0.52575 0.589136
0.629252 0.534203 0.596811
0.634485 0.541161 0.603571
0.639139 0.54725 0.609674
0.64332 0.552636 0.614786
0.646922 0.557214 0.619226
0.649744 0.5608 0.62298
0.652232 0.563912 0.626291
0.654398 0.566613 0.629175
0.656291 0.568933 0.631662
0.657908 0.570901 0.633814
0.659297 0.572595 0.635645
0.660456 0.573999 0.637049
0.661448 0.575189 0.638239
0.146883 0.16051 0.173327
0.14667 0.159869 0.17229
0.146792 0.159182 0.171618
0.14725 0.15848 0.171237
0.147433 0.157763 0.170886
0.148486 0.158297 0.170642
0.152331 0.160327 0.16846
0.156085 0.161852 0.16701
0.157992 0.163577 0.167224
0.161425 0.165896 0.16791
0.167498 0.168704 0.168765
0.173419 0.171176 0.169329
0.18497 0.17525 0.170092
0.195361 0.179629 0.171283
0.204181 0.18439 0.172076
0.211994 0.189334 0.172961
0.219776 0.194446 0.17406
0.232258 0.199496 0.174472
0.246998 0.204868 0.17557
0.264271 0.210758 0.176379
0.280461 0.216861 0.175494
0.296101 0.222812 0.177462
0.311543 0.228397 0.178882
0.327626 0.232929 0.175906
0.344289 0.236362 0.16669
0.360082 0.240162 0.171435
0.375921 0.241672 0.17937
0.391485 0.225269 0.204273
0.40679 0.223896 0.226902
0.420615 0.233661 0.248783
0.433555 0.241947 0.265629
0.446799 0.255406 0.283711
0.458122 0.264088 0.302281
0.46836 0.271794 0.322377
0.478614 0.288518 0.342885
0.486961 0.299733 0.361593
0.49604 0.315221 0.380545
0.504906 0.331502 0.398428
0.513726 0.347936 0.415961
0.522637 0.364843 0.432975
0.531624 0.381888 0.449744
0.540383 0.398016 0.465904
0.549218 0.413397 0.481392
0.557946 0.42797 0.495842
0.566781 0.442069 0.509804
0.575433 0.455787 0.52314
0.583947 0.468956 0.536095
0.592279 0.481865 0.548257
0.600412 0.494026 0.55993
0.608209 0.505455 0.570336
0.615717 0.516045 0.580194
0.622889 0.525795 0.589075
0.629267 0.534249 0.59675
0.634516 0.541192 0.60351
0.639155 0.54728 0.609613
0.643336 0.552682 0.61474
0.646937 0.557244 0.619181
0.64976 0.56083 0.622934
0.652247 0.563943 0.626245
0.654429 0.566644 0.629129
0.656306 0.568963 0.631617
0.657938 0.570932 0.633768
0.659327 0.572625 0.635599
0.660487 0.574029 0.637018
0.661479 0.575219 0.638209
0.148333 0.165805 0.17673
0.148104 0.165347 0.175296
0.148196 0.164828 0.173892
0.149615 0.164355 0.173434
0.15079 0.163821 0.172992
0.151888 0.163409 0.172686
0.154833 0.16524 0.17348
0.157839 0.16672 0.17145
0.159731 0.168246 0.170336
0.162051 0.169741 0.170169
0.167483 0.171832 0.170489
0.172641 0.1738 0.170764
0.182422 0.176638 0.170779
0.192874 0.17995 0.170947
0.201373 0.183612 0.17084
0.209628 0.188312 0.171405
0.217807 0.193668 0.172641
0.229511 0.198917 0.172763
0.243839 0.204318 0.172457
0.26186 0.210452 0.172946
0.278614 0.216693 0.172473
0.294697 0.222812 0.171771
0.310445 0.228717 0.174304
0.326955 0.232929 0.173236
0.343633 0.236469 0.164721
0.359167 0.241047 0.165454
0.375051 0.244038 0.171023
0.390707 0.230838 0.196307
0.406088 0.225101 0.220081
0.420462 0.233753 0.244541
0.433387 0.241794 0.262898
0.446693 0.255497 0.281071
0.458045 0.264225 0.299718
0.46836 0.272084 0.320394
0.478569 0.288792 0.341283
0.487007 0.300237 0.360479
0.496071 0.315587 0.37966
0.504936 0.331731 0.397742
0.513771 0.34815 0.415396
0.522667 0.365011 0.432517
0.531655 0.38204 0.449348
0.540413 0.398138 0.465614
0.549249 0.413489 0.481132
0.557992 0.428061 0.495644
0.566827 0.442145 0.509651
0.575463 0.455863 0.522988
0.583978 0.469017 0.535973
0.592309 0.481926 0.54815
0.600443 0.494087 0.559838
0.60824 0.505516 0.57026
0.615732 0.516091 0.580118
0.622919 0.525841 0.589014
0.629297 0.534295 0.596689
0.634531 0.541238 0.603449
0.639185 0.547326 0.609552
0.643366 0.552712 0.614694
0.646967 0.557275 0.619135
0.64979 0.560861 0.622889
0.652277 0.563973 0.6262
0.654444 0.566674 0.629068
0.656336 0.568994 0.631571
0.657954 0.570962 0.633722
0.659342 0.572641 0.635554
0.660502 0.57406 0.636973
0.661494 0.57525 0.638178
0.150347 0.169055 0.179965
0.149935 0.168627 0.178286
0.149447 0.16817 0.176059
0.151858 0.168353 0.17554
0.153597 0.168322 0.175006
0.154925 0.168154 0.174426
0.157702 0.169131 0.175341
0.159945 0.170626 0.175967
0.161852 0.171893 0.174487
0.16376 0.173129 0.173556
0.168734 0.17499 0.173114
0.173831 0.176974 0.173404
0.182925 0.179706 0.173419
0.193378 0.182971 0.173449
0.202441 0.18677 0.173373
0.210101 0.190478 0.172976
0.217273 0.194568 0.172839
0.226871 0.198535 0.171771
0.240558 0.203708 0.171176
0.259251 0.209903 0.170504
0.276677 0.216434 0.168826
0.293278 0.222797 0.16817
0.309194 0.228779 0.168704
0.326116 0.233295 0.166964
0.342779 0.237171 0.161105
0.358511 0.24271 0.160037
0.374716 0.246326 0.166857
0.390005 0.23714 0.187457
0.404959 0.226856 0.212467
0.420279 0.233814 0.238392
0.433219 0.241657 0.260044
0.446555 0.255482 0.278264
0.457969 0.264363 0.297185
0.468391 0.272496 0.318395
0.478538 0.289052 0.339666
0.487037 0.30074 0.359335
0.496086 0.315877 0.378759
0.504967 0.331975 0.39704
0.513802 0.348348 0.414832
0.522698 0.365194 0.432059
0.531701 0.382193 0.448966
0.540459 0.398245 0.465293
0.549294 0.413596 0.480873
0.558022 0.428153 0.495445
0.566857 0.442222 0.509483
0.575494 0.455924 0.52285
0.584009 0.469078 0.535851
0.59234 0.481987 0.548028
0.600473 0.494148 0.559747
0.60827 0.505562 0.570169
0.615763 0.516136 0.580026
0.62295 0.525887 0.588937
0.629328 0.534325 0.596628
0.634562 0.541283 0.603387
0.639216 0.547372 0.609491
0.643397 0.552758 0.614633
0.646983 0.557305 0.619089
0.649805 0.560891 0.622843
0.652293 0.564004 0.626139
0.654475 0.566705 0.629023
0.656352 0.569024 0.631525
0.657969 0.570993 0.633677
0.659358 0.572671 0.635508
0.660533 0.57409 0.636942
0.661509 0.57528 0.638132
0.151995 0.171695 0.182773
0.151568 0.171298 0.181003
0.15111 0.170871 0.178714
0.153124 0.170993 0.177539
0.156024 0.171328 0.177035
0.158145 0.17142 0.176471
0.160281 0.171725 0.17641
0.162325 0.173419 0.177981
0.164126 0.174853 0.178515
0.165805 0.175952 0.17731
0.170214 0.177539 0.176562
0.174945 0.17937 0.176059
0.183246 0.181933 0.17586
0.193652 0.185016 0.175769
0.203037 0.188785 0.175677
0.211017 0.192569 0.175341
0.218387 0.196674 0.175158
0.227939 0.2009 0.174319
0.240085 0.204837 0.172152
0.25655 0.209247 0.168963
0.274617 0.215915 0.166796
0.291615 0.222614 0.163317
0.307927 0.228672 0.161501
0.32517 0.233692 0.155993
0.341787 0.238315 0.156954
0.357733 0.243229 0.155596
0.374273 0.248173 0.161532
0.389349 0.243641 0.177417
0.404166 0.231312 0.205005
0.419913 0.234318 0.232441
0.433097 0.241749 0.257069
0.446403 0.255329 0.275273
0.457893 0.264485 0.294972
0.468406 0.272892 0.31632
0.478508 0.289311 0.337987
0.487068 0.301137 0.358129
0.496117 0.316243 0.377844
0.504997 0.332204 0.396338
0.513848 0.348562 0.414267
0.522744 0.365377 0.431601
0.531731 0.382345 0.448569
0.54049 0.398367 0.464988
0.549325 0.413687 0.480613
0.558053 0.428229 0.495247
0.566888 0.442313 0.509316
0.575525 0.456001 0.522698
0.584039 0.469139 0.535714
0.592371 0.482048 0.547906
0.600504 0.494209 0.559655
0.608301 0.505623 0.570077
0.615793 0.516197 0.57995
0.62298 0.525933 0.588876
0.629358 0.534371 0.596567
0.634592 0.541314 0.603326
0.639246 0.547402 0.60943
0.643427 0.552789 0.614588
0.646998 0.557351 0.619043
0.649836 0.560922 0.622797
0.652323 0.564034 0.626093
0.65449 0.566735 0.628977
0.656382 0.569039 0.631479
0.658 0.571023 0.633631
0.659388 0.572702 0.635462
0.660548 0.574121 0.636896
0.66154 0.575311 0.638102
0.152163 0.175265 0.18558
0.15198 0.174762 0.183795
0.151781 0.174212 0.181552
0.154238 0.173892 0.179538
0.157366 0.173846 0.178943
0.160204 0.174075 0.178378
0.162188 0.17406 0.177661
0.164248 0.175708 0.179065
0.16611 0.177249 0.180453
0.16788 0.178546 0.180865
0.171847 0.17995 0.179889
0.17615 0.181567 0.179156
0.183581 0.183932 0.178515
0.193866 0.186908 0.177935
0.203281 0.190448 0.177676
0.211749 0.1944 0.177447
0.219242 0.198444 0.177218
0.228504 0.202701 0.176562
0.241123 0.206958 0.174365
0.25771 0.211643 0.171344
0.273564 0.216312 0.166659
0.289723 0.222187 0.161791
0.306508 0.228504 0.152758
0.323812 0.234241 0.146609
0.340337 0.239384 0.149935
0.357 0.24416 0.152407
0.373816 0.250111 0.155444
0.388907 0.247364 0.170153
0.403586 0.237064 0.19733
0.418982 0.235843 0.226383
0.432975 0.24181 0.253941
0.446235 0.255146 0.27216
0.457816 0.264622 0.292699
0.468437 0.273274 0.314183
0.478462 0.28957 0.336278
0.487083 0.301503 0.356893
0.496147 0.316609 0.376913
0.505043 0.332448 0.395621
0.513878 0.34876 0.413687
0.522774 0.36556 0.431128
0.531762 0.382498 0.448188
0.540536 0.398474 0.464683
0.549355 0.413779 0.480354
0.558083 0.428321 0.495048
0.566934 0.44239 0.509148
0.575555 0.456077 0.522545
0.584085 0.4692 0.535592
0.592401 0.482109 0.547799
0.600534 0.494255 0.559564
0.608331 0.505669 0.569986
0.615824 0.516243 0.579858
0.623011 0.525979 0.588815
0.629374 0.534417 0.59649
0.634623 0.54136 0.603265
0.639261 0.547448 0.609369
0.643458 0.552834 0.614542
0.647028 0.557382 0.618982
0.649851 0.560952 0.622751
0.652338 0.564065 0.626047
0.654521 0.566766 0.628931
0.656397 0.56907 0.631434
0.658015 0.571054 0.63357
0.659403 0.572732 0.635416
0.660578 0.574151 0.636866
0.661555 0.575341 0.638056
0.151827 0.179019 0.188266
0.15169 0.178561 0.186542
0.152392 0.178058 0.18436
0.154818 0.177676 0.181735
0.15903 0.177737 0.181048
0.16199 0.177722 0.180423
0.164172 0.177478 0.179706
0.16556 0.178378 0.180224
0.167452 0.17998 0.181552
0.169619 0.181521 0.182788
0.173312 0.183093 0.183078
0.177203 0.184604 0.182162
0.184115 0.186923 0.181445
0.194308 0.189868 0.180591
0.204135 0.193362 0.179965
0.212619 0.197147 0.179675
0.22034 0.201007 0.179324
0.229313 0.205127 0.178836
0.242008 0.20911 0.176593
0.25835 0.213458 0.173465
0.274601 0.218402 0.169024
0.289387 0.223102 0.162692
0.304997 0.228336 0.146487
0.322118 0.23508 0.140688
0.33933 0.241108 0.145159
0.356542 0.24535 0.151339
0.373571 0.251026 0.154711
0.388846 0.250385 0.166949
0.402991 0.242695 0.188693
0.418021 0.237339 0.219577
0.432837 0.241901 0.250645
0.446113 0.255177 0.269474
0.45771 0.264607 0.290242
0.468467 0.273671 0.311986
0.478416 0.28983 0.334539
0.487098 0.301869 0.355612
0.496178 0.316976 0.375982
0.505074 0.332677 0.394888
0.513909 0.348974 0.413092
0.522805 0.365728 0.430671
0.531807 0.382635 0.447791
0.540566 0.398581 0.464378
0.549386 0.413886 0.480095
0.558129 0.428397 0.494835
0.566964 0.442466 0.50898
0.575586 0.456138 0.522393
0.584115 0.469276 0.53547
0.592432 0.48217 0.547677
0.600565 0.494316 0.559472
0.608362 0.50573 0.569909
0.615854 0.516289 0.579782
0.623041 0.52604 0.588754
0.629404 0.534447 0.596429
0.634638 0.54139 0.603204
0.639292 0.547478 0.609308
0.643488 0.552865 0.614496
0.647044 0.557412 0.618936
0.649882 0.560983 0.62269
0.652369 0.564095 0.626001
0.654536 0.566796 0.628885
0.656428 0.5691 0.631388
0.658045 0.571084 0.633524
0.659434 0.572763 0.63537
0.660594 0.574182 0.63682
0.661585 0.575372 0.638025
0.151156 0.182635 0.190951
0.152041 0.182284 0.189334
0.153323 0.181842 0.187259
0.155581 0.18146 0.184573
0.159792 0.181506 0.18323
0.163668 0.181582 0.18262
0.166125 0.181506 0.181933
0.166857 0.181613 0.181567
0.168627 0.183108 0.182788
0.170886 0.184588 0.183963
0.174746 0.186206 0.185046
0.178454 0.187747 0.185336
0.184512 0.189792 0.184421
0.194858 0.192844 0.183642
0.204517 0.196109 0.182696
0.21355 0.200092 0.18201
0.2215 0.203952 0.181628
0.23003 0.20795 0.18117
0.243244 0.212375 0.179294
0.259556 0.21677 0.175769
0.275959 0.221241 0.171542
0.290822 0.22565 0.165255
0.304967 0.229541 0.143587
0.319951 0.235935 0.133562
0.337942 0.242741 0.139239
0.355978 0.247547 0.147997
0.373358 0.252018 0.155383
0.389181 0.255238 0.166064
0.402716 0.249165 0.180606
0.416907 0.239139 0.211017
0.432715 0.242206 0.245289
0.445991 0.255253 0.266468
0.457588 0.264515 0.287388
0.468482 0.274098 0.309453
0.47837 0.290105 0.33254
0.487129 0.302296 0.354147
0.496208 0.317342 0.374899
0.505104 0.332952 0.39408
0.513954 0.349203 0.412436
0.52285 0.365927 0.430137
0.531853 0.382803 0.447349
0.540612 0.398718 0.464027
0.549432 0.413993 0.479789
0.55816 0.428489 0.494606
0.566995 0.442542 0.508782
0.575616 0.456214 0.522225
0.584146 0.469337 0.535317
0.592462 0.482231 0.547539
0.600595 0.494377 0.55935
0.608392 0.505791 0.569802
0.615885 0.51635 0.57969
0.623072 0.526085 0.588678
0.629435 0.534493 0.596368
0.634668 0.541436 0.603128
0.639323 0.547524 0.609247
0.643519 0.552911 0.61445
0.647074 0.557443 0.618875
0.649897 0.561028 0.622644
0.652384 0.564141 0.62594
0.654566 0.566827 0.628824
0.656443 0.569146 0.631327
0.658061 0.571115 0.633478
0.659449 0.572793 0.635309
0.660624 0.574212 0.63679
0.661616 0.575402 0.63798
0.145693 0.18883 0.193835
0.147356 0.18819 0.192752
0.149691 0.187716 0.190799
0.152438 0.187274 0.188327
0.157671 0.186923 0.186084
0.163561 0.18645 0.185168
0.167987 0.185855 0.184451
0.168795 0.185611 0.183749
0.170047 0.186511 0.184283
0.171893 0.187823 0.185321
0.175891 0.189395 0.186328
0.179767 0.190982 0.187518
0.185229 0.192935 0.187854
0.195163 0.19588 0.186923
0.205005 0.199161 0.185992
0.21413 0.203082 0.184985
0.222538 0.206973 0.184192
0.230701 0.210895 0.183703
0.244388 0.215671 0.182147
0.260578 0.220157 0.178637
0.277241 0.22475 0.174243
0.292531 0.229282 0.168246
0.306935 0.233036 0.148135
0.319814 0.237644 0.132113
0.336278 0.244251 0.133944
0.355337 0.250385 0.144335
0.373175 0.253986 0.155703
0.389471 0.259037 0.165759
0.402869 0.256336 0.175509
0.415885 0.241321 0.201434
0.431998 0.244129 0.237766
0.445823 0.255329 0.262592
0.45742 0.264393 0.283757
0.468437 0.274784 0.30634
0.478309 0.290455 0.330037
0.487144 0.3028 0.352331
0.496239 0.317693 0.37351
0.50515 0.333272 0.393072
0.514 0.349477 0.411627
0.522896 0.366171 0.42948
0.531899 0.383001 0.446799
0.540658 0.398871 0.4636
0.549477 0.41413 0.479438
0.558206 0.428595 0.494331
0.567041 0.442649 0.508537
0.575662 0.456321 0.522026
0.584192 0.469429 0.535149
0.592508 0.482307 0.547387
0.600641 0.494453 0.559213
0.608438 0.505852 0.56968
0.61593 0.516411 0.579568
0.623117 0.526146 0.588602
0.629465 0.534554 0.596277
0.634714 0.541497 0.603052
0.639353 0.54757 0.609171
0.643549 0.552972 0.614374
0.647105 0.557488 0.618814
0.649927 0.561059 0.622568
0.652415 0.564172 0.625879
0.654597 0.566873 0.628763
0.656474 0.569177 0.631266
0.658091 0.57116 0.633417
0.65948 0.572839 0.635248
0.660655 0.574258 0.636728
0.661646 0.575448 0.637934
0.139559 0.195666 0.197024
0.141222 0.195117 0.196078
0.143206 0.194614 0.194781
0.145815 0.194232 0.192554
0.148043 0.193668 0.189502
0.159045 0.193942 0.188525
0.164691 0.193561 0.18764
0.168032 0.19321 0.186969
0.169833 0.192828 0.186404
0.171283 0.194064 0.187366
0.176196 0.195789 0.188357
0.180285 0.197375 0.189364
0.186206 0.199481 0.19086
0.19678 0.202564 0.191348
0.206332 0.205585 0.190112
0.215503 0.209415 0.189044
0.224567 0.213336 0.187854
0.232288 0.2168 0.18677
0.245808 0.221027 0.185321
0.261906 0.225101 0.18201
0.278798 0.229175 0.17705
0.294179 0.232853 0.171115
0.30901 0.236835 0.153353
0.322438 0.241947 0.135225
0.336873 0.246921 0.134981
0.354696 0.252872 0.144945
0.373266 0.258091 0.156435
0.389532 0.261723 0.166766
0.403418 0.262379 0.174762
0.415625 0.250584 0.192004
0.430701 0.247318 0.228412
0.445548 0.255192 0.25713
0.457252 0.264439 0.279026
0.468376 0.275608 0.302251
0.478233 0.290852 0.326986
0.487175 0.303426 0.350072
0.496269 0.31812 0.371801
0.505196 0.333654 0.391821
0.514046 0.349798 0.410636
0.522957 0.366461 0.428687
0.53196 0.383246 0.446143
0.540719 0.399039 0.463081
0.549538 0.414282 0.478996
0.558267 0.428733 0.493996
0.567086 0.442771 0.508232
0.575708 0.456428 0.521782
0.584237 0.469535 0.534936
0.592554 0.482414 0.547189
0.600687 0.494545 0.55903
0.608484 0.505943 0.569543
0.615976 0.516487 0.579431
0.623163 0.526223 0.588495
0.629511 0.534615 0.59617
0.634745 0.541558 0.602945
