assets/luts/ACES CCT 2383 D65.cube
TITLE "Generated by Resolve"
LUT_3D_SIZE 5
0.145449 0.154788 0.169955
0.2309 0.196689 0.18822
0.458396 0.263172 0.313848
0.600244 0.493751 0.560388
0.661357 0.575082 0.638392
0.14493 0.21854 0.211948
0.229603 0.232288 0.203769
0.455406 0.265553 0.257465
0.6009 0.494942 0.558221
0.661845 0.575708 0.637598
0.372824 0.461494 0.455421
0.373434 0.463401 0.446433
0.56051 0.536095 0.3411
0.607248 0.507317 0.487236
0.668132 0.584222 0.618204
0.477745 0.615595 0.661234
0.480171 0.617212 0.661692
0.526711 0.642222 0.666453
0.804791 0.774289 0.611795
0.780163 0.744183 0.574182
0.566918 0.676951 0.728878
0.568093 0.677913 0.729488
0.585382 0.69218 0.737835
0.796902 0.811917 0.664134
0.861814 0.844968 0.697795
0.136736 0.160571 0.22414
0.230961 0.198642 0.241611
0.459876 0.2636 0.349096
0.599664 0.492699 0.562264
0.660945 0.574533 0.63917
0.15584 0.22594 0.253315
0.227604 0.237278 0.250416
0.458335 0.265812 0.313481
0.600351 0.493919 0.560372
0.661433 0.575174 0.638407
0.373373 0.461265 0.463111
0.374548 0.463722 0.456382
0.559869 0.536156 0.353155
0.607141 0.507027 0.496025
0.667857 0.583825 0.619928
0.476799 0.614969 0.661311
0.47921 0.616587 0.661753
0.525734 0.641627 0.666835
0.805295 0.774868 0.612634
0.782238 0.746563 0.577813
0.566445 0.67657 0.728695
0.56762 0.677531 0.72932
0.584924 0.691798 0.737758
0.79675 0.812299 0.665003
0.862089 0.845289 0.698238
0.166003 0.107103 0.410163
0.173999 0.10811 0.408667
0.473594 0.276814 0.474693
0.60061 0.4925 0.588312
0.658671 0.571191 0.651637
0.180606 0.122026 0.424353
0.174975 0.111025 0.420813
0.472938 0.277928 0.473976
0.601267 0.493629 0.587686
0.659113 0.571771 0.651209
0.39498 0.481758 0.5346
0.396445 0.483925 0.534813
0.564263 0.564218 0.556817
0.610132 0.509255 0.566781
0.665568 0.580209 0.640681
0.471672 0.606149 0.66511
0.472358 0.607706 0.665019
0.510613 0.632593 0.670207
0.811536 0.782223 0.623911
0.808774 0.776379 0.623392
0.557778 0.669902 0.725231
0.559289 0.671061 0.726024
0.578088 0.686198 0.735851
0.792386 0.817136 0.678309
0.865446 0.849332 0.704082
0.32105 0.366201 0.543847
0.315953 0.358099 0.53994
0.478401 0.362066 0.564385
0.626688 0.529168 0.661372
0.674907 0.590066 0.706142
0.325978 0.373938 0.547173
0.32105 0.366217 0.543847
0.476661 0.371008 0.567666
0.626978 0.52958 0.661631
0.675196 0.590433 0.706355
0.39408 0.471382 0.593774
0.393515 0.470573 0.593378
0.439643 0.530526 0.636393
0.630961 0.535424 0.664988
0.679713 0.596017 0.709514
0.537392 0.652628 0.716014
0.538552 0.653483 0.716716
0.556191 0.666529 0.727352
0.845884 0.854978 0.840116
0.889647 0.853437 0.833814
0.574884 0.684306 0.748165
0.575814 0.685084 0.748837
0.589242 0.696345 0.758434
0.724361 0.80943 0.819196
0.919264 0.915419 0.843793
0.370809 0.437675 0.579156
0.369207 0.435386 0.578073
0.405402 0.435264 0.587274
0.635996 0.542397 0.676844
0.692714 0.611887 0.730327
0.372076 0.43946 0.580133
0.370809 0.437675 0.579156
0.372335 0.432609 0.583581
0.6365 0.54313 0.677363
0.692912 0.612116 0.73051
0.400381 0.480064 0.602274
0.399893 0.479347 0.601846
0.392386 0.468376 0.596155
0.644648 0.554513 0.68574
0.695842 0.615579 0.733227
0.418997 0.507713 0.621546
0.418997 0.507713 0.62153
0.418875 0.507515 0.621424
0.833127 0.852934 0.894194
0.886381 0.850919 0.883803
0.610727 0.714672 0.780774
0.611231 0.715084 0.781125
0.618677 0.721279 0.786603
0.708019 0.798535 0.851728
0.92401 0.926009 0.923644
