assets/luts/ACES CCT 2383 D65.cube
TITLE "Generated by Resolve"
LUT_3D_SIZE 9
0.145449 0.154788 0.169955
0.173877 0.168215 0.177493
0.2309 0.196689 0.18822
0.346777 0.23563 0.200626
0.458396 0.263172 0.313848
0.531426 0.38114 0.451621
0.600244 0.493751 0.560388
0.64683 0.557092 0.619425
0.661357 0.575082 0.638392
0.151995 0.171695 0.182773
0.164126 0.174853 0.178515
0.218387 0.196674 0.175158
0.341787 0.238315 0.156954
0.457893 0.264485 0.294972
0.531731 0.382345 0.448569
0.600504 0.494209 0.559655
0.646998 0.557351 0.619043
0.66154 0.575311 0.638102
0.14493 0.21854 0.211948
0.144808 0.214801 0.199161
0.229603 0.232288 0.203769
0.347127 0.27013 0.147372
0.455406 0.265553 0.257465
0.532204 0.384298 0.443091
0.6009 0.494942 0.558221
0.647303 0.557763 0.618372
0.661845 0.575708 0.637598
0.251987 0.330282 0.308019
0.248463 0.32752 0.295079
0.240696 0.321798 0.25594
0.381292 0.368978 0.207691
0.496132 0.394598 0.267491
0.53341 0.390387 0.407828
0.602594 0.498085 0.550942
0.64863 0.559625 0.61529
0.663127 0.577417 0.634836
0.372824 0.461494 0.455421
0.373205 0.462379 0.45243
0.373434 0.463401 0.446433
0.369406 0.463371 0.391012
0.56051 0.536095 0.3411
0.62179 0.5337 0.347448
0.607248 0.507317 0.487236
0.653635 0.566842 0.592889
0.668132 0.584222 0.618204
0.440833 0.550515 0.579568
0.441367 0.551553 0.579034
0.442206 0.553216 0.578088
0.445472 0.560052 0.5729
0.462974 0.577676 0.513924
0.706493 0.672663 0.499428
0.712703 0.654566 0.462531
0.715343 0.654841 0.488533
0.714611 0.651759 0.499504
0.477745 0.615595 0.661234
0.478645 0.616205 0.661402
0.480171 0.617212 0.661692
0.488563 0.621866 0.662974
0.526711 0.642222 0.666453
0.642313 0.701839 0.583139
0.804791 0.774289 0.611795
0.782361 0.746929 0.577478
0.780163 0.744183 0.574182
0.547906 0.661509 0.712108
0.548486 0.661952 0.712367
0.549493 0.662699 0.71281
0.553964 0.666072 0.714763
0.571481 0.679652 0.721935
0.622782 0.719142 0.71783
0.808331 0.806409 0.651667
0.848219 0.827512 0.676936
0.836881 0.813413 0.659785
0.566918 0.676951 0.728878
0.567361 0.677302 0.729107
0.568093 0.677913 0.729488
0.571328 0.680552 0.731151
0.585382 0.69218 0.737835
0.630365 0.728145 0.743618
0.796902 0.811917 0.664134
0.860121 0.843915 0.693233
0.861814 0.844968 0.697795
0.145983 0.156054 0.181582
0.170932 0.169375 0.189364
0.229953 0.196826 0.203555
0.346838 0.23505 0.238071
0.45861 0.262516 0.328298
0.531167 0.379995 0.454322
0.600031 0.493355 0.561105
0.646677 0.556878 0.619821
0.661204 0.574868 0.638682
0.152758 0.173388 0.188998
0.163516 0.175875 0.188586
0.223667 0.198764 0.191836
0.343221 0.236316 0.20209
0.458061 0.263493 0.313176
0.531472 0.381323 0.451545
0.60029 0.493812 0.560388
0.64686 0.557122 0.619425
0.661387 0.575113 0.638392
0.147845 0.220478 0.225711
0.143557 0.216831 0.211246
0.229358 0.232425 0.207874
0.352041 0.264012 0.181003
0.456947 0.264607 0.280003
0.531975 0.383322 0.446372
0.600702 0.49456 0.559106
0.64715 0.557549 0.618769
0.661692 0.575509 0.637903
0.254185 0.331594 0.319432
0.251759 0.329992 0.308217
0.245045 0.324926 0.280034
0.380728 0.368734 0.216358
0.495384 0.39205 0.26627
0.533379 0.389975 0.41387
0.602411 0.497734 0.551965
0.648478 0.559426 0.615732
0.662989 0.577234 0.635248
0.373022 0.461387 0.458442
0.37351 0.462379 0.455848
0.373922 0.463584 0.450385
0.371267 0.464897 0.402411
0.560174 0.536034 0.34519
0.61735 0.530968 0.346471
0.607065 0.507012 0.490486
0.653529 0.56669 0.593805
0.668025 0.58407 0.61886
0.440696 0.550164 0.580285
0.44123 0.551202 0.579767
0.442069 0.552895 0.578836
0.44538 0.559762 0.573785
0.46273 0.578042 0.517098
0.706554 0.672953 0.500237
0.714244 0.656413 0.467552
0.716564 0.656184 0.492592
0.715694 0.652888 0.503212
0.477394 0.615366 0.661265
0.478294 0.615961 0.661433
0.479805 0.616983 0.661723
0.488045 0.621622 0.662989
0.526345 0.641993 0.666606
0.641398 0.701549 0.58378
0.804974 0.774502 0.612116
0.783047 0.747723 0.578668
0.780957 0.745083 0.575555
0.547662 0.661341 0.712032
0.548257 0.661784 0.712291
0.549249 0.662516 0.712734
0.553719 0.665888 0.714702
0.571298 0.6795 0.72192
0.622644 0.719066 0.718074
0.808316 0.806561 0.651972
0.84831 0.827619 0.677104
0.837125 0.813703 0.660182
0.566735 0.676799 0.728801
0.567178 0.677165 0.729046
0.56791 0.67776 0.729427
0.571145 0.680415 0.73109
0.585214 0.692042 0.737804
0.630243 0.728054 0.74377
0.796841 0.812055 0.664454
0.860212 0.844038 0.693401
0.861921 0.84509 0.697948
0.136736 0.160571 0.22414
0.17705 0.170993 0.228168
0.230961 0.198642 0.241611
0.348516 0.236225 0.271931
0.459876 0.2636 0.349096
0.530663 0.378073 0.458412
0.599664 0.492699 0.562264
0.646418 0.556512 0.620462
0.660945 0.574533 0.63917
0.120363 0.176471 0.222141
0.15613 0.179156 0.232776
0.224369 0.200305 0.236515
0.345388 0.238285 0.256703
0.459251 0.264073 0.338048
0.531014 0.379416 0.456001
0.599924 0.493156 0.561563
0.646601 0.556771 0.620081
0.661128 0.574777 0.63888
0.15584 0.22594 0.253315
0.153002 0.22327 0.248997
0.227604 0.237278 0.250416
0.356329 0.262837 0.248844
0.458335 0.265812 0.313481
0.531548 0.381628 0.451453
0.600351 0.493919 0.560372
0.646906 0.557198 0.619425
0.661433 0.575174 0.638407
0.259159 0.335119 0.338125
0.257084 0.333761 0.329519
0.253193 0.331334 0.311208
0.381186 0.369848 0.246433
0.4916 0.380743 0.277241
0.533257 0.389151 0.422843
0.60209 0.497139 0.553643
0.648219 0.55906 0.616434
0.662745 0.576898 0.635904
0.373373 0.461265 0.463111
0.373831 0.462165 0.460853
0.374548 0.463722 0.456382
0.373739 0.466804 0.417716
0.559869 0.536156 0.353155
0.615412 0.528069 0.35494
0.607141 0.507027 0.496025
0.653361 0.56643 0.595285
0.667857 0.583825 0.619928
0.440436 0.549554 0.58146
0.440986 0.550622 0.580957
0.441855 0.552346 0.580072
0.445228 0.559274 0.575235
0.461509 0.578347 0.521691
0.706676 0.673411 0.501595
0.716731 0.659342 0.475456
0.718532 0.658305 0.499031
0.717372 0.654597 0.508949
0.476799 0.614969 0.661311
0.477714 0.615579 0.661479
0.47921 0.616587 0.661753
0.487205 0.62121 0.663035
0.525734 0.641627 0.666835
0.639872 0.70106 0.584863
0.805295 0.774868 0.612634
0.784176 0.74902 0.580636
0.782238 0.746563 0.577813
0.54728 0.661051 0.711925
0.54786 0.661494 0.712184
0.548836 0.662226 0.712627
0.553323 0.665599 0.714595
0.571008 0.679271 0.721874
0.622415 0.718944 0.718502
0.80827 0.806806 0.652461
0.848478 0.827817 0.677378
0.837537 0.814176 0.660822
0.566445 0.67657 0.728695
0.566888 0.676936 0.728939
0.56762 0.677531 0.72932
0.570855 0.680171 0.730983
0.584924 0.691798 0.737758
0.63003 0.727901 0.744015
0.79675 0.812299 0.665003
0.86038 0.844236 0.69366
0.862089 0.845289 0.698238
0.104326 0.0852674 0.309911
0.124605 0.0886244 0.312581
0.228641 0.148653 0.331334
0.351614 0.214466 0.355993
0.464729 0.268391 0.400931
0.531838 0.378363 0.476097
0.598016 0.489723 0.567086
0.64509 0.55465 0.623072
0.659815 0.573037 0.641245
0.115602 0.111803 0.316045
0.10721 0.0893111 0.31426
0.218494 0.173693 0.332906
0.348516 0.22153 0.353124
0.464317 0.268727 0.396902
0.532189 0.379614 0.474571
0.598276 0.490196 0.566461
0.645319 0.554955 0.622736
0.659998 0.573281 0.640986
0.178653 0.229953 0.342
0.172992 0.221149 0.342367
0.188876 0.233967 0.355535
0.35935 0.26157 0.363851
0.463401 0.268742 0.389212
0.532738 0.381704 0.471763
0.598718 0.49099 0.565393
0.645685 0.555474 0.622171
0.660304 0.573678 0.640528
0.278096 0.349111 0.393896
0.277775 0.348821 0.393286
0.27718 0.348318 0.39205
0.382223 0.386038 0.39942
0.496849 0.378592 0.392203
0.534722 0.389639 0.454292
0.600626 0.494377 0.560311
0.64712 0.557488 0.619425
0.661646 0.575433 0.638422
0.377661 0.464439 0.482979
0.378302 0.465507 0.48188
0.379599 0.467597 0.479759
0.382849 0.474403 0.46215
0.561395 0.540276 0.390692
0.618448 0.533669 0.43595
0.606867 0.506355 0.515465
0.652583 0.565209 0.601572
0.667079 0.582681 0.624475
0.439048 0.546548 0.585214
0.439689 0.547738 0.585107
0.440726 0.549645 0.584878
0.44448 0.557107 0.581292
0.458351 0.579324 0.539132
0.70721 0.675425 0.507439
0.725978 0.669795 0.503578
0.726085 0.66601 0.523156
0.723766 0.660731 0.530816
0.474647 0.613291 0.661616
0.474968 0.61384 0.661585
0.4766 0.614862 0.661952
0.483711 0.619379 0.663233
0.523018 0.640009 0.667781
0.632807 0.698573 0.589548
0.806561 0.77641 0.614939
0.789288 0.754925 0.58938
0.788022 0.753216 0.587762
0.545541 0.659754 0.711406
0.546136 0.660197 0.711681
0.547112 0.660929 0.712123
0.551553 0.664271 0.714122
0.56968 0.678218 0.721721
0.621439 0.718364 0.720333
0.808103 0.807904 0.654627
0.84921 0.828687 0.678584
0.839338 0.816327 0.663706
0.565103 0.675502 0.728191
0.565591 0.675883 0.72845
0.566323 0.676478 0.728832
0.569574 0.679133 0.730541
0.583673 0.690776 0.73753
0.629099 0.72726 0.745098
0.796033 0.813245 0.667414
0.861082 0.845121 0.694804
0.862806 0.846174 0.699458
0.166003 0.107103 0.410163
0.164004 0.106294 0.407813
0.173999 0.10811 0.408667
0.354498 0.198795 0.438163
0.473594 0.276814 0.474693
0.537743 0.386191 0.520333
0.60061 0.4925 0.588312
0.644633 0.553506 0.635523
0.658671 0.571191 0.651637
0.168307 0.10808 0.412894
0.16611 0.107149 0.410285
0.16437 0.106432 0.40824
0.348241 0.194781 0.438682
0.47335 0.277226 0.474434
0.538125 0.387381 0.520012
0.600855 0.492927 0.588083
0.644831 0.55378 0.635309
0.658839 0.571405 0.651469
0.180606 0.122026 0.424353
0.176577 0.11252 0.422446
0.174975 0.111025 0.420813
0.347127 0.223545 0.448524
0.472938 0.277928 0.473976
0.538735 0.38938 0.519463
0.601267 0.493629 0.587686
0.645167 0.554238 0.634974
0.659113 0.571771 0.651209
0.30103 0.358907 0.475883
0.299184 0.356207 0.47567
0.295705 0.35111 0.475181
0.351049 0.387594 0.497307
0.501717 0.383612 0.501091
0.541283 0.396994 0.515724
0.603021 0.496681 0.58529
0.646662 0.556268 0.633371
0.660319 0.573343 0.649897
0.39498 0.481758 0.5346
0.395529 0.482582 0.534676
0.396445 0.483925 0.534813
0.401221 0.490837 0.536889
0.564263 0.564218 0.556817
0.61915 0.535805 0.545434
0.610132 0.509255 0.566781
0.651942 0.563714 0.622385
0.665568 0.580209 0.640681
0.441825 0.549371 0.604212
0.442435 0.550469 0.604379
0.443381 0.552239 0.604547
0.447089 0.559365 0.6038
0.459098 0.585122 0.588022
0.710933 0.686488 0.53814
0.752224 0.69572 0.576181
0.745113 0.682231 0.586145
0.738231 0.671458 0.588983
0.471672 0.606149 0.66511
0.471931 0.606744 0.66508
0.472358 0.607706 0.665019
0.474144 0.611872 0.664714
0.510613 0.632593 0.670207
0.599939 0.684962 0.616327
0.811536 0.782223 0.623911
0.807996 0.775891 0.621302
0.808774 0.776379 0.623392
0.537285 0.653773 0.708751
0.538048 0.654292 0.709102
0.5393 0.655177 0.709667
0.54377 0.658488 0.711772
0.563424 0.673335 0.720592
0.617044 0.715724 0.728283
0.807065 0.812879 0.664729
0.852445 0.832532 0.683925
0.846967 0.82536 0.676005
0.557778 0.669902 0.725231
0.558343 0.670329 0.725521
0.559289 0.671061 0.726024
0.563455 0.674266 0.728206
0.578088 0.686198 0.735851
0.624933 0.72433 0.749432
0.792386 0.817136 0.678309
0.864302 0.849195 0.700114
0.865446 0.849332 0.704082
0.219455 0.144045 0.476371
0.216983 0.136095 0.474662
0.215061 0.134646 0.471992
0.307164 0.179522 0.481437
0.475578 0.289357 0.525124
0.551537 0.412146 0.574289
0.608713 0.503136 0.626612
0.650248 0.559716 0.665736
0.663447 0.576318 0.67834
0.224521 0.16556 0.47866
0.219471 0.144198 0.476371
0.216236 0.135531 0.473625
0.288487 0.182193 0.48011
0.474845 0.289097 0.52578
0.551705 0.412604 0.574411
0.608927 0.503471 0.626688
0.650416 0.55993 0.665782
0.663615 0.576516 0.67837
0.244099 0.228122 0.488304
0.233829 0.197864 0.483375
0.225132 0.167727 0.479026
0.219287 0.150072 0.474342
0.473838 0.290043 0.527123
0.551995 0.413367 0.574624
0.609277 0.504036 0.62681
0.650675 0.560281 0.665843
0.663874 0.576852 0.678431
0.323583 0.374426 0.534051
0.321202 0.370977 0.532708
0.316976 0.364797 0.530343
0.300404 0.337057 0.521935
0.499702 0.39379 0.562203
0.553216 0.416709 0.575555
0.610803 0.506508 0.627344
0.651896 0.561868 0.666133
0.665064 0.578332 0.67866
0.387655 0.464591 0.573693
0.387457 0.464286 0.573617
0.387106 0.463767 0.57348
0.385443 0.461326 0.572854
0.542611 0.561471 0.643717
0.621195 0.537331 0.636835
0.617746 0.517449 0.628565
0.657176 0.56878 0.665721
0.670085 0.584665 0.678721
0.457816 0.576516 0.646113
0.458091 0.577081 0.64625
0.458534 0.578012 0.646448
0.460456 0.582071 0.647318
0.467903 0.597894 0.64918
0.719722 0.726375 0.709407
0.776974 0.716228 0.703166
0.759319 0.690349 0.697765
0.746059 0.675685 0.694865
0.476951 0.615595 0.67834
0.47776 0.616129 0.67863
0.479057 0.617029 0.679072
0.485115 0.620996 0.681071
0.518624 0.639399 0.691432
0.596811 0.695674 0.708232
0.84004 0.827192 0.705684
0.854749 0.824659 0.708705
0.855726 0.824521 0.713451
0.529641 0.648753 0.709606
0.530373 0.649256 0.709987
0.531594 0.650095 0.710628
0.53698 0.653803 0.713405
0.556039 0.66807 0.723644
0.610559 0.712169 0.7476
0.796323 0.827558 0.704875
0.866209 0.848829 0.707851
0.870405 0.852628 0.717693
0.545647 0.660822 0.722087
0.546212 0.66125 0.722408
0.547127 0.661952 0.722957
0.551217 0.665064 0.725338
0.568124 0.678248 0.735164
0.616083 0.717952 0.758709
0.767559 0.819974 0.714595
0.875441 0.86331 0.72076
0.875547 0.861326 0.722927
0.32105 0.366201 0.543847
0.319158 0.36318 0.542443
0.315953 0.358099 0.53994
0.293462 0.320851 0.524468
0.478401 0.362066 0.564385
0.559304 0.428672 0.599786
0.626688 0.529168 0.661372
0.662623 0.574945 0.69456
0.674907 0.590066 0.706142
0.322911 0.369192 0.545205
0.32105 0.366201 0.543847
0.317906 0.361196 0.541451
0.2972 0.327291 0.526802
0.477821 0.365545 0.565667
0.559853 0.429953 0.600458
0.626795 0.52932 0.661463
0.662745 0.575097 0.694652
0.675013 0.590204 0.706218
0.325978 0.373938 0.547173
0.324117 0.37113 0.546075
0.32105 0.366217 0.543847
0.303273 0.337545 0.530724
0.476661 0.371008 0.567666
0.560708 0.431922 0.601495
0.626978 0.52958 0.661631
0.662959 0.575357 0.69482
0.675196 0.590433 0.706355
0.353017 0.413108 0.563928
0.351629 0.411139 0.562997
0.349081 0.407523 0.561303
0.338262 0.391928 0.554711
0.470436 0.401297 0.57821
0.564385 0.440208 0.606012
0.627756 0.530739 0.662333
0.663859 0.576455 0.695521
0.676005 0.591455 0.706935
0.39408 0.471382 0.593774
0.393866 0.471077 0.593622
0.393515 0.470573 0.593378
0.391653 0.467887 0.591821
0.439643 0.530526 0.636393
0.625803 0.548424 0.673259
0.630961 0.535424 0.664988
0.667842 0.581323 0.698634
0.679713 0.596017 0.709514
0.411261 0.496696 0.607904
0.411261 0.496681 0.607904
0.411246 0.496651 0.607889
0.41117 0.496529 0.607813
0.410971 0.496208 0.607965
0.704189 0.724498 0.784314
0.778286 0.71751 0.786892
0.763684 0.692866 0.770611
0.750561 0.678462 0.761334
0.537392 0.652628 0.716014
0.53782 0.652949 0.716274
0.538552 0.653483 0.716716
0.541756 0.655848 0.718654
0.556191 0.666529 0.727352
0.599985 0.701305 0.75462
0.845884 0.854978 0.840116
0.8925 0.858213 0.836088
0.889647 0.853437 0.833814
0.56553 0.676036 0.739681
0.565881 0.67631 0.73991
0.566461 0.676783 0.740307
0.569009 0.678874 0.742077
0.580484 0.688396 0.750027
0.618845 0.72015 0.774517
0.783047 0.848951 0.836439
0.904967 0.903563 0.846357
0.914977 0.903197 0.843076
0.574884 0.684306 0.748165
0.575235 0.684596 0.748425
0.575814 0.685084 0.748837
0.578393 0.687236 0.750698
0.589242 0.696345 0.758434
0.625299 0.726497 0.781765
0.724361 0.80943 0.819196
0.899229 0.91284 0.847227
0.919264 0.915419 0.843793
0.360433 0.423117 0.571145
0.359701 0.422065 0.570687
0.35845 0.420279 0.569894
0.350393 0.408835 0.564416
0.440055 0.406821 0.578607
0.571954 0.456855 0.61854
0.635538 0.541802 0.674815
0.676539 0.592279 0.713222
0.687358 0.605447 0.72343
0.361151 0.42414 0.571603
0.360433 0.423117 0.571145
0.359213 0.421363 0.570367
0.351629 0.410574 0.56524
0.435294 0.409155 0.578973
0.572549 0.458106 0.619303
0.63566 0.54197 0.674937
0.676616 0.592355 0.713283
0.687449 0.605554 0.723507
0.36231 0.425803 0.572366
0.361624 0.424811 0.571908
0.360433 0.423117 0.571145
0.353597 0.413397 0.566583
0.426352 0.412528 0.579126
0.573526 0.460136 0.620554
0.635859 0.54226 0.675135
0.676738 0.592508 0.71339
0.687587 0.605722 0.723613
0.370169 0.436927 0.57789
0.369512 0.436011 0.577356
0.368399 0.434455 0.576455
0.362631 0.426261 0.57258
0.353094 0.410666 0.573053
0.577569 0.468635 0.625803
0.636805 0.543618 0.676081
0.677256 0.593164 0.713832
0.688228 0.606485 0.724147
0.398779 0.477791 0.600397
0.398581 0.477501 0.600244
0.39826 0.477043 0.59997
0.396765 0.474861 0.598703
0.389838 0.46479 0.593576
0.626368 0.555657 0.683574
0.641505 0.550225 0.680858
0.679606 0.596033 0.71577
0.691051 0.609827 0.726467
0.41239 0.498054 0.611612
0.412375 0.498039 0.611597
0.41236 0.497993 0.611566
0.412238 0.497826 0.611429
0.411719 0.497063 0.610864
0.682902 0.716655 0.792981
0.775051 0.715526 0.804623
0.763546 0.692805 0.787472
0.751568 0.679591 0.777462
0.418738 0.507362 0.620905
0.418738 0.507347 0.620905
0.418738 0.507347 0.620905
0.418708 0.507317 0.62089
0.418631 0.507179 0.620798
0.534157 0.650385 0.719188
0.837003 0.853925 0.881254
0.891737 0.857282 0.875242
0.888792 0.852369 0.87274
0.593713 0.699672 0.764446
0.593927 0.699855 0.764599
0.594308 0.70016 0.764874
0.595972 0.701549 0.766079
0.603449 0.70779 0.771557
0.630503 0.730098 0.790417
0.765362 0.839292 0.871855
0.89865 0.905089 0.898619
0.92256 0.910201 0.898009
0.600275 0.705776 0.770947
0.600504 0.705974 0.771115
0.6009 0.70631 0.77142
0.60264 0.707774 0.772717
0.610101 0.714076 0.778225
0.63653 0.736248 0.796872
0.711849 0.801358 0.846296
0.891905 0.914794 0.903639
0.924529 0.925078 0.90454
0.370809 0.437675 0.579156
0.370214 0.43682 0.578759
0.369207 0.435386 0.578073
0.363943 0.427893 0.574441
0.405402 0.435264 0.587274
0.57705 0.467613 0.626139
0.635996 0.542397 0.676844
0.682246 0.599313 0.720562
0.692714 0.611887 0.730327
0.371298 0.438361 0.579538
0.370809 0.437675 0.579156
0.369818 0.436255 0.578485
0.364721 0.429007 0.574975
0.392996 0.434592 0.585748
0.577661 0.468833 0.626947
0.636179 0.542672 0.677043
0.682292 0.59939 0.720623
0.69279 0.611963 0.730404
0.372076 0.43946 0.580133
0.371618 0.438804 0.579767
0.370809 0.437675 0.579156
0.365972 0.430793 0.57583
0.372335 0.432609 0.583581
0.578607 0.470817 0.628183
0.6365 0.54313 0.677363
0.682399 0.599512 0.720714
0.692912 0.612116 0.73051
0.37641 0.445563 0.583505
0.375906 0.444862 0.583108
0.375051 0.443656 0.582437
0.370932 0.437858 0.579248
0.337011 0.389242 0.556817
0.582422 0.479088 0.633295
0.637934 0.545174 0.678828
0.682826 0.600031 0.721111
0.693462 0.612757 0.731029
0.400381 0.480064 0.602274
0.400198 0.479805 0.602106
0.399893 0.479347 0.601846
0.398672 0.477562 0.60087
0.392386 0.468376 0.596155
0.625605 0.557748 0.686564
0.644648 0.554513 0.68574
0.684657 0.602243 0.722698
0.695842 0.615579 0.733227
0.412787 0.498573 0.612619
0.412772 0.498558 0.612604
0.412757 0.498512 0.612573
0.412634 0.498344 0.612451
0.412085 0.497536 0.611826
0.674525 0.713649 0.79324
0.77612 0.718029 0.811124
0.763317 0.692622 0.792508
0.751888 0.679988 0.782391
0.418997 0.507713 0.621546
0.418997 0.507713 0.62153
0.418997 0.507713 0.62153
0.418967 0.507668 0.621515
0.418875 0.507515 0.621424
0.476448 0.615427 0.693492
0.833127 0.852934 0.894194
0.888487 0.855711 0.886488
0.886381 0.850919 0.883803
0.517464 0.640864 0.712581
0.518044 0.641291 0.712963
0.51899 0.641978 0.713573
0.523247 0.645014 0.71632
0.542748 0.658747 0.728756
0.597879 0.703151 0.769329
0.757794 0.834195 0.879622
0.895537 0.904097 0.914855
0.921859 0.910155 0.914809
0.610727 0.714672 0.780774
0.610925 0.714824 0.780911
0.611231 0.715084 0.781125
0.612604 0.716213 0.782132
0.618677 0.721279 0.786603
0.64152 0.740627 0.803479
0.708019 0.798535 0.851728
0.88838 0.913527 0.920317
0.92401 0.926009 0.923644
